X:2015
T:Purphy's
O:ireland
S:irtrad-l, 4/97, David de la Barre
M:6/8
L:1/8
C:Brian Finnegan
R:jig
D:Kathryn Tickell Band;Signs
K:D
^A|B3 BAB|dBB BAF|G2d3E|F2c3^A|
B3 BAB|dBB BAF|edc AEA|^A2B3c|
B3 BAB|dBB BAF|G2d2ef|e2c3^A|
B3 BAB|dBB eBf|BgB edB|^ABc B2:|
z|FBd dcB|FBd dcB|Ace ecA|GBd F2E|
FBd dcB|FBd dcB|fed efd|B3-B2 =f|
fdB B2 d-|d e/2d/2c ^a2b|edB Bcd|c2B c2B|
FBd fBd|EAc ec/2d/2e|dcB ^ABc|B3 B2 :|
